key-alert-outline.svg

<svg fill="currentColor" viewBox="0 0 24 24"><path d="M16 22h-4v2H6V13.32C3.58 12.17 2 9.72 2 7c0-3.86 3.14-7 7-7s7 3.14 7 7c0 2.72-1.58 5.18-4 6.32V16h4zm-2-4h-4v-6.06l.67-.23C12.66 11 14 9.11 14 7c0-2.76-2.24-5-5-5S4 4.24 4 7c0 2.11 1.34 4 3.33 4.71l.67.23V22h2v-2h4zM12 7c0 1.66-1.34 3-3 3S6 8.66 6 7s1.34-3 3-3 3 1.34 3 3M9 8c.55 0 1-.45 1-1s-.45-1-1-1-1 .45-1 1 .45 1 1 1m11-1h2v6h-2m0 4h2v-2h-2"/></svg>

<svg  viewBox="0 0 24 24" fill="currentColor"><path  d="M16 22H12V24H6V13.32C3.58 12.17 2 9.72 2 7C2 3.14 5.14 0 9 0C12.86 0 16 3.14 16 7C16 9.72 14.42 12.18 12 13.32V16H16V22M14 18H10V11.94L10.67 11.71C12.66 11 14 9.11 14 7C14 4.24 11.76 2 9 2S4 4.24 4 7C4 9.11 5.34 11 7.33 11.71L8 11.94V22H10V20H14V18M12 7C12 8.66 10.66 10 9 10S6 8.66 6 7 7.34 4 9 4 12 5.34 12 7M9 8C9.55 8 10 7.55 10 7S9.55 6 9 6 8 6.45 8 7 8.45 8 9 8M20 7H22V13H20M20 17H22V15H20"/></svg>
